X:25
T:Polska från Norrland
T:Svenska Folkdansar H3 nr 25
O:Norrland
B:Traditioner av Svenska Folkdansar Häfte 3, nr 25
R:Polska
Z:Nils L
M:3/4
L:1/16
K:G
G4 G2G2 G2G2 | A4 A2A2 A2A2 | TB4 c2B2 A2G2 | F2E2 D2C2 B,2A,2 |
G4 G2G2 G2G2 | A4 A2A2 A2A2 | (TB3A/B/) c2B2 A2G2 | FGAF G4 G,4 ::
dedB dedB dedB | cdcA cdcA cdcA | dedB dedB dedB | cdcA cdcA cdcA |
G4 G2G2 G2G2 | A4 A2A2 A2A2 | (TB3A/B/) c2B2 A2G2 | FGAF G4 G,4 :|

